src/static/logos/get-satisfaction.svg

<?xml version="1.0" encoding="UTF-8" standalone="no"?>
<svg width="512px" height="122px" viewBox="0 0 512 122" version="1.1" xmlns="http://www.w3.org/2000/svg" xmlns:xlink="http://www.w3.org/1999/xlink" preserveAspectRatio="xMidYMid">
	<g>
		<path d="M337.428761,109.815867 C331.730499,109.815867 330.523139,104.465133 330.523139,97.7332751 C330.523139,90.483121 332.506446,85.8274436 337.593537,85.8274436 C340.7872,85.8274436 343.121031,87.11869 344.586041,92.7300696 L358.912585,88.2391684 C356.237218,80.4737141 351.404781,73.5710881 337.767301,73.5710881 C327.58413,73.5710881 313.43135,78.4065214 313.43135,97.649389 C313.43135,116.640598 326.289888,121.640808 337.162123,121.640808 C350.541953,121.640808 356.410982,114.049118 359.083353,107.143496 L344.930573,102.394944 C343.381677,108.434742 340.188014,109.815867 337.428761,109.815867 L337.428761,109.815867 Z M378.550916,60.6466399 L361.908517,60.6466399 L361.908517,106.739045 C361.908517,115.750807 363.391503,121.299272 379.156094,121.299272 C382.535504,121.299272 388.536355,120.768992 389.647846,120.514338 L389.647846,108.560571 C388.536355,108.818221 386.352321,109.078867 384.878323,109.078867 C380.024914,109.078867 378.550916,107.868511 378.550916,102.925224 L378.550916,86.1659838 L389.647846,86.1659838 L389.647846,73.9605592 L378.550916,73.9605592 L378.550916,60.6466399 L378.550916,60.6466399 Z M293.121931,105.516705 C292.013436,106.94876 289.218232,108.293933 284.826197,108.293933 C282.588236,108.293933 280.817641,107.212402 280.817641,104.878572 C280.817641,101.211551 284.244986,98.9705947 293.118935,98.7039568 L293.118935,105.516705 L293.121931,105.516705 Z M309.76433,91.9810867 C309.76433,78.4484645 304.575377,71.8214641 290.416605,71.8214641 C281.3629,71.8214641 275.173306,73.9845266 270.640462,76.6389219 L275.775488,88.5297737 C279.340646,86.4775607 283.472036,84.9945746 287.906014,84.9945746 C292.028416,84.9945746 293.121931,86.6932677 293.121931,89.0241024 L293.121931,89.6502521 C273.148056,90.5460356 263.591035,97.0891498 263.591035,107.841548 C263.591035,117.251768 270.463702,121.464048 277.366328,121.464048 C284.448709,121.464048 289.406976,118.593946 293.349622,113.662642 C293.349622,116.355985 293.825975,118.345283 294.458116,120.562273 L312.014275,120.562273 C311.031609,118.345283 309.76433,114.837048 309.76433,109.102835 L309.76433,91.9810867 L309.76433,91.9810867 Z M267.599591,73.9635551 L257.617148,73.9635551 L257.617148,73.3973241 C257.617148,68.4810006 260.367413,68.3072366 263.387312,68.3072366 C264.855318,68.3072366 266.491097,68.5648867 267.599591,68.8255327 L267.599591,57.1773513 C266.491097,56.9197012 260.463282,56.4014051 257.098851,56.4014051 C241.394179,56.4014051 239.860262,65.0296876 239.860262,72.7082598 L239.860262,120.565268 L257.617148,120.565268 L257.617148,86.1659838 L267.599591,86.1659838 L267.599591,73.9635551 L267.599591,73.9635551 Z M394.087816,69.5265807 L410.730215,69.5265807 L410.730215,60.6496358 L394.087816,60.6496358 L394.087816,69.5265807 L394.087816,69.5265807 Z M218.837811,91.1781771 C214.179138,90.5729989 211.764417,89.7940568 211.764417,87.6399821 C211.764417,85.5667975 213.660842,84.7039693 216.509972,84.7039693 C220.218936,84.7039693 225.138255,86.4326217 230.144456,89.3626427 L236.4449,79.9584139 C230.836517,75.9019227 224.964491,73.5710881 214.868202,73.5710881 C204.427381,73.5710881 195.969867,78.8349396 195.969867,89.1888786 C195.969867,101.187584 207.102748,102.997127 214.955084,104.126593 C219.95829,104.809665 222.121352,105.591603 222.121352,108.006324 C222.121352,110.163395 219.529871,111.029219 216.596854,111.029219 C211.330007,111.029219 204.343495,108.869152 200.026358,105.417839 L193.725914,114.995832 C198.816001,118.704795 205.895387,121.640808 216.683737,121.640808 C227.385204,121.640808 237.909911,117.416545 237.909911,105.154197 C237.909911,93.9374299 226.693143,92.2117734 218.837811,91.1781771 L218.837811,91.1781771 Z M498.313275,73.5710881 C489.768878,73.5710881 485.071258,78.4065214 482.851272,81.6001843 L482.851272,73.9635551 L466.208873,73.9635551 L466.208873,120.565268 L482.851272,120.565268 L482.851272,90.833645 C486.179752,89.0181105 487.917392,87.556096 490.853405,87.556096 C493.705532,87.556096 495.056697,89.3626427 495.056697,92.5593015 L495.056697,120.565268 L511.699096,120.565268 L511.699096,86.944926 C511.699096,77.0224011 505.560433,73.5710881 498.313275,73.5710881 L498.313275,73.5710881 Z M439.107678,109.815867 C433.154762,109.815867 431.515987,104.465133 431.515987,97.7332751 C431.515987,90.483121 433.50229,85.8274436 439.107678,85.8274436 C444.979703,85.8274436 446.699368,91.007409 446.699368,97.7332751 C446.702364,105.067315 444.719057,109.815867 439.107678,109.815867 L439.107678,109.815867 Z M439.107678,73.5710881 C427.893906,73.5710881 414.43019,78.4065214 414.43019,97.649389 C414.43019,116.640598 427.974796,121.640808 439.107678,121.640808 C450.243555,121.640808 463.791157,116.640598 463.791157,97.649389 C463.794153,78.4035255 450.243555,73.5710881 439.107678,73.5710881 L439.107678,73.5710881 Z M394.087816,120.562273 L410.730215,120.562273 L410.730215,73.9635551 L394.087816,73.9635551 L394.087816,120.562273 L394.087816,120.562273 Z M121.143483,105.516705 C118.926494,106.94876 117.137923,108.293933 112.745887,108.293933 C110.507927,108.293933 108.785266,107.212402 108.785266,104.878572 C108.785266,101.211551 112.266538,98.9705947 121.143483,98.7039568 L121.143483,105.516705 L121.143483,105.516705 Z M137.785882,91.9810867 C137.785882,78.4484645 132.495067,71.8214641 118.336295,71.8214641 C105.432819,71.8214641 98.0778072,76.2134996 93.6917636,80.1531494 L101.034791,90.1925157 C105.064319,87.3194174 110.280236,84.9945746 115.837689,84.9945746 C119.954098,84.9945746 121.143483,86.6932677 121.143483,89.0241024 L121.143483,89.6502521 C101.172604,90.5460356 91.5047336,97.0891498 91.5047336,107.841548 C91.5047336,117.251768 98.3294654,121.464048 105.229095,121.464048 C112.311477,121.464048 117.248772,118.593946 121.188422,113.662642 C121.188422,116.355985 121.640808,118.345283 122.269953,120.562273 L139.832103,120.562273 C138.843446,118.345283 137.785882,114.837048 137.785882,109.102835 L137.785882,91.9810867 L137.785882,91.9810867 Z M158.868252,60.6466399 L142.225853,60.6466399 L142.225853,106.739045 C142.225853,115.750807 143.705843,121.299272 159.470434,121.299272 C162.849845,121.299272 168.853691,120.768992 169.962186,120.514338 L169.962186,108.560571 C168.853691,108.818221 166.666661,109.078867 165.195659,109.078867 C160.34225,109.078867 158.868252,107.868511 158.868252,102.925224 L158.868252,86.1659838 L169.962186,86.1659838 L169.962186,73.9605592 L158.868252,73.9605592 L158.868252,60.6466399 L158.868252,60.6466399 Z M70.9346684,91.1781771 C66.2729991,90.5729989 63.8552825,89.7940568 63.8552825,87.6399821 C63.8552825,85.5667975 65.754703,84.7039693 68.6008379,84.7039693 C72.309801,84.7039693 77.2291204,86.4326217 82.2383177,89.3626427 L88.5327696,79.9584139 C82.9273819,75.9019227 77.0583523,73.5710881 66.9620634,73.5710881 C56.5212423,73.5710881 48.060732,78.8349396 48.060732,89.1888786 C48.060732,101.187584 59.1966091,102.997127 67.0489454,104.126593 C72.0551468,104.809665 74.2122174,105.591603 74.2122174,108.006324 C74.2122174,110.163395 71.6207367,111.029219 68.6907158,111.029219 C63.4238683,111.029219 56.4343603,108.869152 52.1202191,105.417839 L45.8197753,114.995832 C50.9098628,118.704795 57.9892487,121.640808 68.7746019,121.640808 C79.473073,121.640808 90.003772,117.416545 90.003772,105.154197 C90.003772,93.9374299 78.7870047,92.2117734 70.9346684,91.1781771 L70.9346684,91.1781771 Z M174.402156,69.5265807 L191.044555,69.5265807 L191.044555,60.6496358 L174.402156,60.6496358 L174.402156,69.5265807 L174.402156,69.5265807 Z M174.402156,120.562273 L191.044555,120.562273 L191.044555,73.9635551 L174.402156,73.9635551 L174.402156,120.562273 L174.402156,120.562273 Z" fill="#792980"></path>
		<path d="M89.9528411,33.7192082 L86.1270367,34.5311056 L84.892713,47.0570949 C84.4942541,51.1435454 84.889717,51.9314754 87.2565029,51.4341508 C88.1193311,51.2513989 89.0121187,50.8409563 89.6742195,50.3646032 L90.1865238,55.8142025 C87.7268641,57.5039078 85.3031556,58.5165327 83.4187147,58.9119956 C77.5556769,60.1583031 74.4788553,59.3823568 75.0960172,53.1927625 L76.719812,36.5234 L74.6016885,36.9697938 L75.2727771,30.5525087 L77.375921,30.0701637 L78.0140544,23.5450251 L87.5501041,20.0607568 L86.7651701,28.0658856 L91.8312901,26.9843544 L89.9528411,33.7192082 L89.9528411,33.7192082 Z M57.2971886,54.1394768 C57.5548387,56.8597826 58.6483536,57.4200218 61.5094682,56.8477989 C63.8852418,56.3654539 66.8512139,54.6038462 69.0711991,52.4887186 L71.4679442,58.0611511 C67.2796321,61.4585373 63.2171491,63.2770677 60.3560346,63.8522865 C52.3688814,65.4581058 48.4502031,62.9744786 47.7791144,55.835174 C46.8024408,45.4782391 52.0063737,35.3759583 62.3123778,33.2997778 C68.1424603,32.1283686 73.049796,33.4196151 73.5920596,39.1927749 C74.0863883,44.4266672 69.730304,50.1339165 60.6106887,51.9674266 C59.0468125,52.2879912 57.7405864,52.4407837 57.2971886,52.4168163 C57.2432618,52.9830473 57.2732211,53.869843 57.2971886,54.1394768 L57.2971886,54.1394768 Z M44.1750089,67.5133147 C43.9173588,70.3234984 43.6417331,72.4775731 43.1354207,73.5710881 C41.026285,78.1938103 36.1399208,81.0549248 29.710652,82.3491672 C25.5612869,83.1820361 21.4658487,82.8434959 19.443595,81.8098995 L22.0171001,75.3027365 C23.4072123,76.0726908 25.8069533,76.4801375 29.6357537,75.7041913 C32.5987299,75.1080009 34.5700528,72.7142517 34.7737761,70.1796937 C34.8486744,69.2749224 34.9295645,68.3701511 35.2471333,67.6421398 C34.2584759,68.8405124 32.7065834,69.817186 30.2259522,70.3175066 C24.8872024,71.39005 21.8283564,69.2329794 21.1392922,61.9408823 C20.6030204,56.2246451 21.933214,41.8082231 36.2717418,38.9201452 C40.0436195,38.1651705 43.4949325,37.7547279 47.0600909,38.2580443 C47.0600909,38.2580443 44.4626183,64.4185176 44.1750089,67.5133147 L44.1750089,67.5133147 Z M117.680187,50.7390947 L105.043348,42.8058683 L110.229305,28.8118725 L95.5222777,26.3162617 L94.9620385,11.4055109 L80.4167914,14.7279989 L74.18825,1.16841326 L62.0217724,9.8086795 L51.0836268,0 L43.1504004,12.2953026 L29.1594006,7.10634935 L26.6607938,21.8133767 L11.7500431,22.3766118 L15.072531,36.9248549 L1.50994944,43.1444085 L10.1502157,55.313882 L0,66.2520276 L12.6338428,74.185254 L7.44788553,88.1792497 L22.1579088,90.6718647 L22.721144,105.588607 L37.266391,102.263123 L42.9227096,112.659005 L49.939181,101.987498 C46.6796076,99.2851675 44.3547648,95.2706194 44.3547648,89.1918746 C44.3547648,77.6335711 53.4414248,69.8711128 66.9620634,69.8711128 C76.8696086,69.8711128 83.7512631,71.9233258 90.7078159,76.9564906 L91.3609289,77.4298478 L91.3878923,77.4028844 C97.7842059,71.653692 106.211761,68.5529029 116.457846,68.1604359 L107.532967,61.6832322 L117.680187,50.7390947 L117.680187,50.7390947 Z M34.9475401,46.4549127 C31.5531498,47.1379851 30.1540498,55.5775239 30.5285413,59.550129 C30.801171,62.4382069 31.5621376,62.9475152 33.1260138,62.6299465 C34.0427688,62.4471947 35.1033285,60.9012941 35.3340153,60.4129573 L36.9338427,46.5537785 C36.742103,46.2601772 35.8103684,46.2811487 34.9475401,46.4549127 L34.9475401,46.4549127 Z M60.1822705,45.6729746 C62.2854144,45.2475524 64.5024037,43.689668 64.31366,41.6734062 C64.1938227,40.4181109 63.3729375,39.8608677 62.0247684,40.1364933 C59.6489947,40.6128464 58.5345083,42.7789049 58.2139436,45.789816 C58.4925652,45.8437427 59.157662,45.873702 60.1822705,45.6729746 L60.1822705,45.6729746 Z" fill="#F47D30"></path>
	</g>
</svg>

<svg width="512" height="122" xmlns="http://www.w3.org/2000/svg" preserveAspectRatio="xMidYMid"><path d="M337.429 109.816c-5.699 0-6.906-5.35-6.906-12.083 0-7.25 1.983-11.906 7.07-11.906 3.194 0 5.528 1.292 6.993 6.903l14.327-4.49c-2.676-7.766-7.508-14.669-21.146-14.669-10.183 0-24.336 4.836-24.336 24.078 0 18.992 12.859 23.992 23.731 23.992 13.38 0 19.249-7.592 21.921-14.498l-14.152-4.748c-1.55 6.04-4.743 7.42-7.502 7.42zm41.122-49.17h-16.642v46.093c0 9.012 1.483 14.56 17.247 14.56 3.38 0 9.38-.53 10.492-.785v-11.953c-1.112.257-3.296.518-4.77.518-4.853 0-6.327-1.21-6.327-6.154V86.166h11.097V73.961H378.55V60.647zm-85.43 44.87c-1.108 1.433-3.903 2.778-8.295 2.778-2.238 0-4.008-1.082-4.008-3.415 0-3.667 3.427-5.908 12.3-6.175v6.813h.004zm16.643-13.535c0-13.533-5.189-20.16-19.347-20.16-9.054 0-15.244 2.164-19.777 4.818l5.135 11.89c3.566-2.051 7.697-3.534 12.131-3.534 4.122 0 5.216 1.698 5.216 4.03v.625c-19.974.896-29.531 7.44-29.531 18.192 0 9.41 6.873 13.622 13.775 13.622 7.083 0 12.041-2.87 15.984-7.801 0 2.693.476 4.682 1.108 6.9h17.556c-.982-2.218-2.25-5.726-2.25-11.46V91.98zM267.6 73.964h-9.983v-.567c0-4.916 2.75-5.09 5.77-5.09 1.468 0 3.104.258 4.213.519V57.177c-1.109-.257-7.137-.776-10.501-.776-15.705 0-17.239 8.629-17.239 16.307v47.857h17.757V86.166h9.983V73.964zm126.488-4.437h16.642V60.65h-16.642v8.877zm-175.25 21.651c-4.659-.605-7.074-1.384-7.074-3.538 0-2.073 1.897-2.936 4.746-2.936 3.709 0 8.628 1.729 13.634 4.659l6.3-9.405c-5.607-4.056-11.48-6.387-21.576-6.387-10.44 0-18.898 5.264-18.898 15.618 0 11.999 11.133 13.808 18.985 14.938 5.003.683 7.166 1.465 7.166 3.88 0 2.156-2.591 3.022-5.524 3.022-5.267 0-12.254-2.16-16.57-5.611l-6.301 9.578c5.09 3.709 12.17 6.645 22.958 6.645 10.701 0 21.226-4.224 21.226-16.487 0-11.217-11.217-12.942-19.072-13.976zm279.475-17.607c-8.544 0-13.242 4.836-15.462 8.03v-7.637H466.21v46.601h16.642V90.834c3.329-1.816 5.066-3.278 8.002-3.278 2.853 0 4.204 1.807 4.204 5.003v28.006H511.7v-33.62c0-9.923-6.139-13.374-13.386-13.374zm-59.205 36.245c-5.953 0-7.592-5.35-7.592-12.083 0-7.25 1.986-11.906 7.592-11.906 5.872 0 7.591 5.18 7.591 11.906.003 7.334-1.98 12.083-7.591 12.083zm0-36.245c-11.214 0-24.678 4.836-24.678 24.078 0 18.992 13.545 23.992 24.678 23.992 11.136 0 24.683-5 24.683-23.992.003-19.245-13.547-24.078-24.683-24.078zm-45.02 46.991h16.642V73.964h-16.642v46.598zm-272.945-15.045c-2.217 1.432-4.005 2.777-8.397 2.777-2.238 0-3.96-1.082-3.96-3.415 0-3.667 3.48-5.908 12.357-6.175v6.813zm16.643-13.536c0-13.533-5.29-20.16-19.45-20.16-12.903 0-20.258 4.392-24.644 8.332l7.343 10.04c4.03-2.874 9.245-5.198 14.803-5.198 4.116 0 5.305 1.698 5.305 4.03v.625c-19.97.896-29.638 7.44-29.638 18.192 0 9.41 6.824 13.622 13.724 13.622 7.082 0 12.02-2.87 15.96-7.801 0 2.693.452 4.682 1.081 6.9h17.562c-.989-2.218-2.046-5.726-2.046-11.46V91.98zm21.082-31.334h-16.642v46.092c0 9.012 1.48 14.56 17.244 14.56 3.38 0 9.384-.53 10.492-.785v-11.953c-1.108.257-3.295.518-4.766.518-4.854 0-6.328-1.21-6.328-6.154V86.166h11.094V73.961h-11.094V60.647zM70.935 91.178c-4.662-.605-7.08-1.384-7.08-3.538 0-2.073 1.9-2.936 4.746-2.936 3.709 0 8.628 1.729 13.637 4.659l6.295-9.405c-5.606-4.056-11.475-6.387-21.57-6.387-10.442 0-18.902 5.264-18.902 15.618 0 11.999 11.136 13.808 18.988 14.938 5.006.683 7.163 1.465 7.163 3.88 0 2.156-2.591 3.022-5.521 3.022-5.267 0-12.257-2.16-16.57-5.611l-6.301 9.578c5.09 3.709 12.17 6.645 22.955 6.645 10.698 0 21.229-4.224 21.229-16.487 0-11.217-11.217-12.942-19.07-13.976zm103.467-21.651h16.643V60.65h-16.643v8.877zm0 51.035h16.643V73.964h-16.643v46.598z" fill="#792980"/><path d="M89.953 33.72l-3.826.811-1.234 12.526c-.399 4.087-.003 4.874 2.364 4.377a6.725 6.725 0 002.417-1.07l.513 5.45c-2.46 1.69-4.884 2.703-6.768 3.098-5.863 1.246-8.94.47-8.323-5.72l1.624-16.669-2.118.447.67-6.417 2.104-.483.638-6.525 9.536-3.484-.785 8.005 5.066-1.082-1.878 6.735zM57.297 54.14c.258 2.72 1.351 3.28 4.212 2.708 2.376-.483 5.342-2.244 7.562-4.36l2.397 5.573c-4.188 3.398-8.25 5.216-11.112 5.791-7.987 1.606-11.906-.878-12.577-8.017-.977-10.357 4.227-20.459 14.533-22.535 5.83-1.172 10.738.12 11.28 5.893.494 5.234-3.862 10.94-12.981 12.774-1.564.321-2.87.474-3.314.45-.054.566-.024 1.453 0 1.722zM44.175 67.512c-.258 2.81-.533 4.965-1.04 6.058-2.109 4.623-6.995 7.484-13.424 8.778-4.15.833-8.245.494-10.267-.54l2.573-6.506c1.39.77 3.79 1.177 7.619.401 2.963-.596 4.934-2.99 5.138-5.524.075-.905.156-1.81.473-2.538-.989 1.199-2.54 2.175-5.021 2.676-5.339 1.072-8.398-1.085-9.087-8.377-.536-5.716.794-20.133 15.133-23.02 3.772-.756 7.223-1.166 10.788-.663 0 0-2.597 26.16-2.885 29.255zM117.68 50.74l-12.637-7.933 5.186-13.994-14.707-2.496-.56-14.91-14.545 3.322-6.229-13.56-12.166 8.64L51.084 0 43.15 12.295 29.16 7.106l-2.5 14.707-14.91.564 3.323 14.548-13.563 6.22 8.64 12.169L0 66.252l12.634 7.933L7.448 88.18l14.71 2.493.563 14.917 14.545-3.326 5.657 10.396 7.016-10.672c-3.26-2.702-5.584-6.716-5.584-12.795 0-11.558 9.086-19.32 22.607-19.32 9.908 0 16.79 2.051 23.746 7.084l.653.474.027-.027c6.396-5.75 14.824-8.85 25.07-9.243l-8.925-6.477L117.68 50.74zm-82.732-4.284c-3.395.683-4.794 9.123-4.42 13.095.273 2.888 1.034 3.398 2.598 3.08.917-.183 1.977-1.729 2.208-2.217l1.6-13.86c-.192-.293-1.124-.272-1.986-.098zm25.234-.782c2.103-.425 4.32-1.983 4.132-4-.12-1.255-.941-1.812-2.29-1.537-2.375.477-3.49 2.643-3.81 5.654.279.054.944.084 1.968-.117z" fill="#F47D30"/></svg>
